X: 1
T:GREENWOOD SIDE
M:C|
L:1/8
Q:80
C:Traditional
S:March
K:HP
|: f|
{g}B3/4{d}B/4{e}B/2c/2{gBd}B{G}A|
{g}B/2c/4d3/4e/4{gfg}f2|
{g}e3/2f/2{g}e3/4f/4{gef}e/2d/2|  !
{gcd}c{e}A{GAG}Af|
{g}B3/4{d}B/4{e}B/2c/2{gBd}B{G}A|
{g}B3/4c/4d3/4e/4{gfg}f2|  !
{gef}ea{fg}f{g}e/2f/2|
{Gdc}d{g}B{GdG}B:| |:
{Gdc}d/2e/2|  !
{gfg}f2{gBG}B3/2f/2|
{g}B3/4{d}B/4{e}B/2{d}c/2{gfg}f2|
{g}e3/2f/2{g}e3/4f/4{gef}e/2d/2|  !
{gcd}c{e}A{GAG}A|1 {Gdc}d/2e/2|1
{gfg}f2{gBG}B3/2f/2|
{g}B3/4{d}B/4{e}B/2{d}c/2{gfg}f2|  !
{gef}ea{fg}f{g}e/2f/2|
{Gdc}d{g}B{GdG}B:|2
f|  !
{g}B3/4{d}B/4{e}B/2c/2{gBd}B{G}A|
{g}B3/4c/4d3/4e/4{gfg}f2|
{gef}ea{fg}f{g}e/2f/2|  !
{Gdc}d{g}B{GdG}B|]
